src/assets/img/logos/WM Walking/Landscape/White text.svg

<?xml version="1.0" encoding="UTF-8"?>
<svg width="806px" height="303px" viewBox="0 0 806 303" version="1.1" xmlns="http://www.w3.org/2000/svg" xmlns:xlink="http://www.w3.org/1999/xlink">
    <!-- Generator: Sketch 57.1 (83088) - https://sketch.com -->
    <title>Logos / WM Walking / Landscape / White text</title>
    <desc>Created with Sketch.</desc>
    <g id="Logos-/-WM-Walking-/-Landscape-/-White-text" stroke="none" stroke-width="1" fill="none" fill-rule="evenodd">
        <path d="M784.16,124.69 C799.24,124.69 804.3,134.27 804.95,139.98 L792.95,142.67 C792.52,139.55 790.26,135.57 784.23,135.57 C780.46,135.57 777.45,137.83 777.45,140.84 C777.45,143.43 779.39,145.04 782.29,145.58 L789.83,147.2 C800.28,149.35 805.55,155.71 805.55,163.46 C805.55,172.07 798.87,180.91 784.98,180.91 C769.05,180.91 763.55,170.57 762.9,164.54 L775.22,161.84 C775.55,166.04 778.67,169.92 784.92,169.92 C789.65,169.92 791.92,167.44 791.92,164.64 C791.92,162.28 790.3,160.34 786.21,159.47 L779.21,157.86 C768.98,155.6 764.34,149.46 764.34,142.03 C764.34,132.55 772.75,124.69 784.16,124.69 Z M595.4,124.69 C612.2,124.69 618.45,134.17 618.45,144.83 L618.45,170.89 C618.463625,173.702019 618.68086,176.50936 619.1,179.29 L606,179.29 C605.62853,177.193994 605.44779,175.068634 605.46,172.94 C602.76,177.14 597.7,180.8 589.84,180.8 C578.53,180.8 571.64,173.15 571.64,164.86 C571.64,155.38 578.64,150.1 587.47,148.81 L600.45,146.88 C603.45,146.44 604.45,144.94 604.45,143.11 C604.45,139.33 601.54,136.21 595.51,136.21 C589.26,136.21 585.82,140.21 585.39,144.83 L572.68,142.13 C573.54,133.84 581.19,124.69 595.4,124.69 Z M528.2,101.32 L528.17,169.71 C528.17,173.26 528.38,177.14 528.6,179.29 L514.92,179.29 C514.569543,177.261914 514.388916,175.208123 514.38,173.15 C512.01,177.35 506.63,180.58 499.52,180.58 C484.44,180.58 473.67,168.74 473.67,152.69 C473.67,137.18 484.12,125.01 499.09,125.01 C508.24,125.01 512.55,128.78 514.09,131.58 L514.09,101.32 L528.2,101.32 Z M749.7,101.32 L749.67,169.71 C749.67,173.26 749.88,177.14 750.1,179.29 L736.42,179.29 C736.0648,177.262534 735.884138,175.208341 735.88,173.15 C733.51,177.35 728.13,180.58 721.02,180.58 C705.94,180.58 695.17,168.74 695.17,152.69 C695.17,137.18 705.62,125.01 720.59,125.01 C729.74,125.01 734.05,128.78 735.59,131.58 L735.59,101.32 L749.7,101.32 Z M461.21,126.29 L461.21,179.29 L446.89,179.29 L446.89,126.29 L461.21,126.29 Z M558.78,101.32 L558.78,179.29 L544.45,179.29 L544.45,101.32 L558.78,101.32 Z M663.19,124.86 C676.32,124.86 682.35,134.23 682.35,145.86 L682.35,179.25 L668,179.25 L668,148.38 C668,142.46 665.09,137.83 658.2,137.83 C651.95,137.83 648.29,142.67 648.29,148.83 L648.29,179.29 L634,179.29 L634,126.29 L647.89,126.29 L647.89,132.86 C651.12,127.37 657.47,124.86 663.19,124.86 Z M363.7,102.87 L381.15,157.25 L398.59,102.87 L414.11,102.87 L435.32,179.22 L419.6,179.22 L405.6,126.67 L388.69,179.22 L373.28,179.22 L356.27,126.45 L342.49,179.22 L327.3,179.22 L348.41,102.87 L363.7,102.87 Z M604.47,155.49 L592.47,157.32 C588.8,157.86 585.9,159.91 585.9,164 C585.9,167.12 588.16,170.14 592.79,170.14 C598.79,170.14 604.42,167.23 604.42,157.86 L604.47,155.49 Z M501.24,137.83 C493.94,137.83 488.11,143.21 488.11,152.69 C488.11,162.17 493.71,167.77 501.24,167.77 C508.57,167.77 514.24,162.17 514.24,152.58 C514.24,142.99 508.54,137.83 501.24,137.83 Z M722.74,137.83 C715.45,137.83 709.6,143.21 709.6,152.69 C709.6,162.17 715.2,167.77 722.74,167.77 C730.06,167.77 735.74,162.17 735.74,152.58 C735.74,142.99 730.03,137.83 722.74,137.83 Z M454,99.9999958 C458.86249,99.995296 462.81588,103.918573 462.848355,108.780957 C462.880829,113.643341 458.980194,117.619074 454.118075,117.679317 C449.255956,117.739561 445.258011,113.861696 445.17,108.999996 C445.12434,106.628824 446.034445,104.338957 447.695366,102.646059 C449.356287,100.953161 451.628384,99.9995604 454,99.9999958 Z M463.77,21.79 C480.15,21.79 489.94,32.23 489.94,49.25 C489.94,51.3 489.73,53.45 489.73,53.67 L451.82,53.67 C452.15,60.67 458.07,65.73 465.17,65.73 C471.85,65.73 475.51,62.39 477.24,57.65 L489.19,61.18 C486.5,70.33 478.1,78 465.07,78 C450.53,78 437.71,67.56 437.71,49.68 C437.71,32.77 450.21,21.79 463.77,21.79 Z M518.94,21.76 C534.02,21.76 539.08,31.34 539.73,37.05 L527.73,39.74 C527.3,36.62 525.04,32.63 519,32.63 C515.24,32.63 512.22,34.89 512.22,37.91 C512.22,40.5 514.16,42.11 517.07,42.65 L524.61,44.27 C535.05,46.42 540.33,52.78 540.33,60.53 C540.33,69.14 533.65,77.98 519.76,77.98 C503.82,77.98 498.33,67.64 497.68,61.61 L510,58.91 C510.32,63.11 513.45,66.99 519.69,66.99 C524.43,66.99 526.69,64.51 526.69,61.71 C526.69,59.35 525.08,57.41 520.98,56.54 L513.98,54.93 C503.76,52.66 499.12,46.53 499.12,39.09 C499.12,29.62 507.52,21.76 518.94,21.76 Z M570.73,7.54 L570.73,23.37 L581.39,23.37 L581.39,36.08 L570.73,36.08 L570.73,58.26 C570.73,62.9 572.88,64.4 576.97,64.4 C578.45452,64.416279 579.936454,64.2721089 581.39,63.97 L581.39,75.82 C578.80573,76.7696182 576.061485,77.2077464 573.31,77.11 C562.97,77.11 556.51,70.97 556.51,60.74 L556.51,36.08 L546.92,36.08 L546.92,23.37 L549.61,23.37 C555.22,23.37 557.8,19.71 557.8,14.97 L557.8,7.54 L570.73,7.54 Z M343.02,-4.97379915e-14 L357.02,52.56 L373.93,-4.97379915e-14 L389.33,-4.97379915e-14 L406.35,52.77 L420.13,-4.97379915e-14 L435.32,-4.97379915e-14 L414.21,76.36 L398.92,76.36 L381.47,21.97 L364.02,76.36 L348.51,76.36 L327.3,-4.97379915e-14 L343.02,-4.97379915e-14 Z M452.15,43.83 L475.84,43.83 C475.62,38.56 472.17,33.39 463.99,33.39 C457.893655,33.1638745 452.688787,37.7533015 452.15,43.83 Z" id="Combined-Shape" fill="#FFFFFF" fill-rule="nonzero"></path>
        <path d="M90.22,186.148855 C92.6577014,186.148855 94.8491149,187.608155 95.7964758,189.836741 L95.89,190.07 L127.02,273.2 C127.16,273.57 127.27,273.97 127.38,274.37 C127.525979,274.931481 127.596598,275.50989 127.590423,276.09 C127.590423,279.574797 124.826445,282.414126 121.371341,282.535929 L121.14,282.54 L59.3,282.54 C55.7361421,282.54 52.8455168,279.653854 52.8398921,276.09 C52.8366647,275.509443 52.9106481,274.931027 53.06,274.37 C53.1333333,274.103333 53.2066667,273.836667 53.2888889,273.578889 L53.42,273.2 L84.55,190.07 C85.440046,187.710531 87.6982399,186.148855 90.22,186.148855 Z M194.755,186.153898 C197.276419,186.153898 199.535292,187.71266 200.43,190.07 L200.43,190.07 L231.61,273.2 C231.74,273.57 231.85,273.97 231.97,274.37 C232.115979,274.931481 232.186598,275.50989 232.180423,276.09 C232.174483,279.653854 229.283858,282.54 225.72,282.54 L225.72,282.54 L163.89,282.54 C160.326142,282.54 157.435517,279.653854 157.429577,276.09 C157.423402,275.50989 157.494021,274.931481 157.64,274.37 C157.76,273.97 157.87,273.57 158,273.2 L158,273.2 L189.08,190.07 C189.974708,187.71266 192.233581,186.153898 194.755,186.153898 Z M37.995,47.0752369 C40.5356592,47.0752369 42.8008961,48.6754287 43.65,51.07 L74.8,134.19 C76.4001773,139.283956 76.4001773,144.746044 74.8,149.84 L43.65,233 C42.8008961,235.394571 40.5356592,236.994763 37.995,236.994763 C35.4543408,236.994763 33.1891039,235.394571 32.34,233 L1.21,149.84 C-0.40313158,144.748039 -0.40313158,139.281961 1.21,134.19 L32.34,51.07 C33.1891039,48.6754287 35.4543408,47.0752369 37.995,47.0752369 Z M250.67,48.29 C251.658506,48.9862352 252.417395,49.960956 252.85,51.09 L284,134.19 C285.613132,139.281961 285.613132,144.748039 284,149.84 L252.85,233 C252.185011,234.743457 250.753907,236.083346 248.970492,236.632239 C247.187077,237.181132 245.250234,236.877818 243.72,235.81 C242.72605,235.115171 241.965986,234.135455 241.54,233 L210.41,149.87 C208.796868,144.778039 208.796868,139.311961 210.41,134.22 L241.54,51.1 C242.204989,49.3565435 243.636093,48.0166542 245.419508,47.4677609 C247.202923,46.9188677 249.139766,47.2221818 250.67,48.29 Z M121.14,2.84217094e-14 C124.703854,0.00551680787 127.590509,2.89614211 127.590509,6.46 C127.597269,7.03685293 127.526631,7.61204703 127.38,8.17 C127.27,8.58 127.16,8.98 127.02,9.35 L95.89,92.49 C94.999954,94.8494686 92.7417601,96.4111452 90.22,96.4111452 C87.6982399,96.4111452 85.440046,94.8494686 84.55,92.49 L53.42,9.37 C53.28,9 53.17,8.6 53.06,8.19 C52.5315825,6.24317737 52.9384828,4.16133107 54.1610304,2.55673741 C55.3835779,0.95214375 57.2827517,0.00726780294 59.3,2.84217094e-14 L121.14,2.84217094e-14 Z M225.67,-4.97379915e-14 C229.237759,-4.97379915e-14 232.130509,2.89224052 232.130509,6.46 C232.137269,7.03685293 232.066631,7.61204703 231.92,8.17 C231.8,8.58 231.69,8.98 231.56,9.35 L200.43,92.49 C199.997111,93.624291 199.238689,94.6053699 198.25,95.31 C196.14425,96.7674321 193.35575,96.7674321 191.25,95.31 C190.261311,94.6053699 189.502889,93.624291 189.07,92.49 L158,9.37 C157.87,9 157.76,8.6 157.64,8.19 C157.493369,7.63204703 157.422731,7.05685293 157.429491,6.48 C157.418884,2.92388046 160.283969,0.0275069056 163.84,-4.97379915e-14 L225.67,-4.97379915e-14 Z" id="Combined-Shape" fill="#FFFFFF" fill-rule="nonzero"></path>
        <path d="M148.25,233 C147.400896,235.394571 145.135659,236.994763 142.595,236.994763 C140.054341,236.994763 137.789104,235.394571 136.94,233 L105.81,149.87 C104.196868,144.778039 104.196868,139.311961 105.81,134.22 L136.94,51.1 C137.832707,48.7522205 140.083229,47.2002267 142.595,47.2002267 C145.106771,47.2002267 147.357293,48.7522205 148.25,51.1 L179.39,134.23 C181.003132,139.321961 181.003132,144.788039 179.39,149.88 L148.25,233 Z" id="Path" fill="#93D500"></path>
        <path d="M695.69,225.58 C703.91,225.58 709.46,228.69 712.12,234.01 L712.12,226.58 L722.44,226.58 L722.44,276 C722.44,289.54 715.78,302.75 695.69,302.75 C682.37,302.75 672.38,294.31 671.05,282.88 L681.15,280.55 C681.733294,288.092664 688.127558,293.853658 695.69,293.65 C706.9,293.65 712.01,287.88 712.01,276.33 L712.01,268.67 C709.46,273.56 703.68,277.44 695.69,277.44 C681.49,277.44 671.16,266.67 671.16,251.58 C671.16,237.15 681.04,225.58 695.69,225.58 Z M459.59,224.93 C475.59,224.93 481.79,234.03 481.79,244.47 L481.79,271.22 C481.755275,274.153623 481.976109,277.084697 482.45,279.98 L472.25,279.98 C471.845825,277.598634 471.661715,275.185118 471.7,272.77 C469.37,276.54 464.04,281.65 454.49,281.65 C443.62,281.65 436.62,274.1 436.62,265.65 C436.62,256.13 443.62,250.8 452.83,249.47 L467.26,247.36 C470.48,246.92 471.36,245.25 471.36,243.36 C471.36,238.14 467.92,233.81 459.82,233.81 C452.5,233.81 448.39,238.36 447.72,244.58 L437.72,242.25 C438.83,232.04 448.05,224.93 459.59,224.93 Z M335.83,201.3 L353.15,262.9 L372.91,201.3 L384.34,201.3 L404.54,263.57 L421.52,201.3 L432.73,201.3 L410.31,280 L399.1,280 L378.57,216.18 L358.26,280 L347.38,280 L324.62,201.3 L335.83,201.3 Z M508.43,199.64 L508.43,280 L498,280 L498,199.64 L508.43,199.64 Z M536.52,199.64 L536.52,250.25 L559.61,226.61 L574,226.61 L551.28,249.14 L574.48,280 L561.38,280 L544,256.46 L536.56,263.9 L536.56,280 L526.2,280 L526.2,199.64 L536.52,199.64 Z M594.8,226.61 L594.8,280 L584.47,280 L584.47,226.61 L594.8,226.61 Z M639.19,225.05 C651.96,225.05 658.28,234.27 658.28,246.14 L658.28,280 L647.85,280 L647.85,247.92 C647.85,240.48 644.74,234.49 635.42,234.49 C627.21,234.49 622.99,241.04 622.99,249.14 L623,280 L612.55,280 L612.55,226.61 L622.77,226.61 L622.77,234.27 C626.117497,228.396985 632.432903,224.850819 639.19,225.05 Z M471.36,254.69 L455.05,257.13 C450.61,257.8 447.28,260.35 447.28,265.13 C447.28,269.13 450.61,272.9 455.94,272.9 C464.48,272.89 471.36,268.78 471.36,257.13 L471.36,254.69 Z M697.25,234.46 C688.03,234.46 681.82,241.23 681.82,251.55 C681.82,261.87 687.82,268.640099 697.25,268.640099 C706.24,268.67 712.45,261.9 712.45,251.58 L712.45,251.55 C712.45,241.23 706.24,234.46 697.25,234.46 Z M589.58,198.86 C593.715167,198.832528 597.090182,202.161454 597.119569,206.296607 C597.148956,210.431761 593.821594,213.808318 589.686455,213.83962 C585.551315,213.870922 582.173217,210.545125 582.14,206.41 C582.124029,204.421789 582.899239,202.508813 584.294807,201.092611 C585.690375,199.67641 587.591769,198.873209 589.58,198.86 Z" id="Combined-Shape" fill="#93D500"></path>
    </g>
</svg>

<svg width="806" height="303" xmlns="http://www.w3.org/2000/svg"><g fill="none" fill-rule="evenodd"><path d="M784.16 124.69c15.08 0 20.14 9.58 20.79 15.29l-12 2.69c-.43-3.12-2.69-7.1-8.72-7.1-3.77 0-6.78 2.26-6.78 5.27 0 2.59 1.94 4.2 4.84 4.74l7.54 1.62c10.45 2.15 15.72 8.51 15.72 16.26 0 8.61-6.68 17.45-20.57 17.45-15.93 0-21.43-10.34-22.08-16.37l12.32-2.7c.33 4.2 3.45 8.08 9.7 8.08 4.73 0 7-2.48 7-5.28 0-2.36-1.62-4.3-5.71-5.17l-7-1.61c-10.23-2.26-14.87-8.4-14.87-15.83 0-9.48 8.41-17.34 19.82-17.34zm-188.76 0c16.8 0 23.05 9.48 23.05 20.14v26.06c.014 2.812.23 5.62.65 8.4H606a35.23 35.23 0 01-.54-6.35c-2.7 4.2-7.76 7.86-15.62 7.86-11.31 0-18.2-7.65-18.2-15.94 0-9.48 7-14.76 15.83-16.05l12.98-1.93c3-.44 4-1.94 4-3.77 0-3.78-2.91-6.9-8.94-6.9-6.25 0-9.69 4-10.12 8.62l-12.71-2.7c.86-8.29 8.51-17.44 22.72-17.44zm-67.2-23.37l-.03 68.39c0 3.55.21 7.43.43 9.58h-13.68a37 37 0 01-.54-6.14c-2.37 4.2-7.75 7.43-14.86 7.43-15.08 0-25.85-11.84-25.85-27.89 0-15.51 10.45-27.68 25.42-27.68 9.15 0 13.46 3.77 15 6.57v-30.26h14.11zm221.5 0l-.03 68.39c0 3.55.21 7.43.43 9.58h-13.68a36 36 0 01-.54-6.14c-2.37 4.2-7.75 7.43-14.86 7.43-15.08 0-25.85-11.84-25.85-27.89 0-15.51 10.45-27.68 25.42-27.68 9.15 0 13.46 3.77 15 6.57v-30.26h14.11zm-288.49 24.97v53h-14.32v-53h14.32zm97.57-24.97v77.97h-14.33v-77.97h14.33zm104.41 23.54c13.13 0 19.16 9.37 19.16 21v33.39H668v-30.87c0-5.92-2.91-10.55-9.8-10.55-6.25 0-9.91 4.84-9.91 11v30.46H634v-53h13.89v6.57c3.23-5.49 9.58-8 15.3-8zM363.7 102.87l17.45 54.38 17.44-54.38h15.52l21.21 76.35H419.6l-14-52.55-16.91 52.55h-15.41l-17.01-52.77-13.78 52.77H327.3l21.11-76.35h15.29zm240.77 52.62l-12 1.83c-3.67.54-6.57 2.59-6.57 6.68 0 3.12 2.26 6.14 6.89 6.14 6 0 11.63-2.91 11.63-12.28l.05-2.37zm-103.23-17.66c-7.3 0-13.13 5.38-13.13 14.86s5.6 15.08 13.13 15.08c7.33 0 13-5.6 13-15.19s-5.7-14.75-13-14.75zm221.5 0c-7.29 0-13.14 5.38-13.14 14.86s5.6 15.08 13.14 15.08c7.32 0 13-5.6 13-15.19s-5.71-14.75-13-14.75zM454 100a8.84 8.84 0 11-8.83 9 8.83 8.83 0 018.83-9zm9.77-78.21c16.38 0 26.17 10.44 26.17 27.46 0 2.05-.21 4.2-.21 4.42h-37.91c.33 7 6.25 12.06 13.35 12.06 6.68 0 10.34-3.34 12.07-8.08l11.95 3.53C486.5 70.33 478.1 78 465.07 78c-14.54 0-27.36-10.44-27.36-28.32 0-16.91 12.5-27.89 26.06-27.89zm55.17-.03c15.08 0 20.14 9.58 20.79 15.29l-12 2.69c-.43-3.12-2.69-7.11-8.73-7.11-3.76 0-6.78 2.26-6.78 5.28 0 2.59 1.94 4.2 4.85 4.74l7.54 1.62c10.44 2.15 15.72 8.51 15.72 16.26 0 8.61-6.68 17.45-20.57 17.45-15.94 0-21.43-10.34-22.08-16.37l12.32-2.7c.32 4.2 3.45 8.08 9.69 8.08 4.74 0 7-2.48 7-5.28 0-2.36-1.61-4.3-5.71-5.17l-7-1.61c-10.22-2.27-14.86-8.4-14.86-15.84 0-9.47 8.4-17.33 19.82-17.33zm51.79-14.22v15.83h10.66v12.71h-10.66v22.18c0 4.64 2.15 6.14 6.24 6.14a20.61 20.61 0 004.42-.43v11.85a21.24 21.24 0 01-8.08 1.29c-10.34 0-16.8-6.14-16.8-16.37V36.08h-9.59V23.37h2.69c5.61 0 8.19-3.66 8.19-8.4V7.54h12.93zM343.02 0l14 52.56L373.93 0h15.4l17.02 52.77L420.13 0h15.19l-21.11 76.36h-15.29l-17.45-54.39-17.45 54.39h-15.51L327.3 0h15.72zm109.13 43.83h23.69c-.22-5.27-3.67-10.44-11.85-10.44a11.46 11.46 0 00-11.84 10.44zM90.22 186.149a6.06 6.06 0 015.576 3.688l.094.233 31.13 83.13c.14.37.25.77.36 1.17a6.52 6.52 0 01.21 1.72 6.45 6.45 0 01-6.219 6.446l-.231.004H59.3a6.46 6.46 0 01-6.46-6.45 6.53 6.53 0 01.22-1.72c.073-.267.147-.533.229-.791l.131-.379 31.13-83.13a6.06 6.06 0 015.67-3.921zm104.535.005a6.07 6.07 0 015.675 3.916l31.18 83.13c.13.37.24.77.36 1.17a6.52 6.52 0 01.21 1.72 6.46 6.46 0 01-6.46 6.45h-61.83a6.46 6.46 0 01-6.46-6.45 6.558 6.558 0 01.21-1.72c.12-.4.23-.8.36-1.17l31.08-83.13a6.07 6.07 0 015.675-3.916zM37.995 47.075a6 6 0 015.655 3.995l31.15 83.12a26.11 26.11 0 010 15.65L43.65 233a6 6 0 01-11.31 0L1.21 149.84a25.91 25.91 0 010-15.65l31.13-83.12a6 6 0 015.655-3.995zM250.67 48.29a6.09 6.09 0 012.18 2.8l31.15 83.1a25.91 25.91 0 010 15.65L252.85 233a6.06 6.06 0 01-9.13 2.81 6 6 0 01-2.18-2.81l-31.13-83.13a25.91 25.91 0 010-15.65l31.13-83.12a6.06 6.06 0 019.13-2.81zM121.14 0a6.46 6.46 0 016.45 6.46 6.431 6.431 0 01-.21 1.71c-.11.41-.22.81-.36 1.18L95.89 92.49a6.06 6.06 0 01-11.34 0L53.42 9.37c-.14-.37-.25-.77-.36-1.18A6.49 6.49 0 0159.3 0h61.84zm104.53 0a6.46 6.46 0 016.46 6.46 6.431 6.431 0 01-.21 1.71c-.12.41-.23.81-.36 1.18l-31.13 83.14a6.16 6.16 0 01-2.18 2.82 6.15 6.15 0 01-7 0 6.16 6.16 0 01-2.18-2.82L158 9.37c-.13-.37-.24-.77-.36-1.18a6.431 6.431 0 01-.21-1.71A6.46 6.46 0 01163.84 0h61.83z" fill="#FFF" fill-rule="nonzero"/><path d="M148.25 233a6 6 0 01-11.31 0l-31.13-83.13a25.91 25.91 0 010-15.65l31.13-83.12a6.05 6.05 0 0111.31 0l31.14 83.13a25.91 25.91 0 010 15.65L148.25 233zm547.44-7.42c8.22 0 13.77 3.11 16.43 8.43v-7.43h10.32V276c0 13.54-6.66 26.75-26.75 26.75-13.32 0-23.31-8.44-24.64-19.87l10.1-2.33c.583 7.543 6.978 13.304 14.54 13.1 11.21 0 16.32-5.77 16.32-17.32v-7.66c-2.55 4.89-8.33 8.77-16.32 8.77-14.2 0-24.53-10.77-24.53-25.86 0-14.43 9.88-26 24.53-26zm-236.1-.65c16 0 22.2 9.1 22.2 19.54v26.75a50.53 50.53 0 00.66 8.76h-10.2a39.36 39.36 0 01-.55-7.21c-2.33 3.77-7.66 8.88-17.21 8.88-10.87 0-17.87-7.55-17.87-16 0-9.52 7-14.85 16.21-16.18l14.43-2.11c3.22-.44 4.1-2.11 4.1-4 0-5.22-3.44-9.55-11.54-9.55-7.32 0-11.43 4.55-12.1 10.77l-10-2.33c1.11-10.21 10.33-17.32 21.87-17.32zM335.83 201.3l17.32 61.6 19.76-61.6h11.43l20.2 62.27 16.98-62.27h11.21L410.31 280H399.1l-20.53-63.82L358.26 280h-10.88l-22.76-78.7h11.21zm172.6-1.66V280H498v-80.36h10.43zm28.09 0v50.61l23.09-23.64H574l-22.72 22.53 23.2 30.86h-13.1L544 256.46l-7.44 7.44V280H526.2v-80.36h10.32zm58.28 26.97V280h-10.33v-53.39h10.33zm44.39-1.56c12.77 0 19.09 9.22 19.09 21.09V280h-10.43v-32.08c0-7.44-3.11-13.43-12.43-13.43-8.21 0-12.43 6.55-12.43 14.65L623 280h-10.45v-53.39h10.22v7.66a18.28 18.28 0 0116.42-9.22zm-167.83 29.64l-16.31 2.44c-4.44.67-7.77 3.22-7.77 8 0 4 3.33 7.77 8.66 7.77 8.54-.01 15.42-4.12 15.42-15.77v-2.44zm225.89-20.23c-9.22 0-15.43 6.77-15.43 17.09s6 17.09 15.43 17.09c8.99.03 15.2-6.74 15.2-17.06v-.03c0-10.32-6.21-17.09-15.2-17.09zm-107.67-35.6a7.49 7.49 0 11.1 14.98 7.49 7.49 0 01-.1-14.98z" fill="#93D500"/></g></svg>
